X: 38751
T: Strombery Fields Furtiver
R: waltz
M: 3/4
K: Gmajor
d2|g3 a b2|g4 f2|e3 f g2|d3 c B2|E3 B B2|B3 c d2|A2 F2 d2|A2 F2 D2|
g3 a b2|g4 f2|e3 f g2|d3 c B2|c3 B A2|B3 A G2|D2 G2 F2|G4||
A2|A3 B A2|e4 c2|B3 c B2|d4 B2|c3 B A2|A2 B2 c2|B4 G2|E6|A3 B A2|e4 c2|
B3 c B2|d4 B2|c3 B A2|G3 A G2|D2 G2 F2|G4||

